X: 65
T: La Hier Au Soir
%R: jig
B: Stewart "A Select Collection of Airs, Jigs, Marches and Reels", ca.1784, p.30 #65
F: http://imslp.org/wiki/A_Select_Collection_of_Airs,_Jigs,_Marches_and_Reels_%28Various%29
Z: 2017 John Chambers <jc:trillian.mit.edu>
M: 6/8
L: 1/8
K: G
d |\
d2c c2B | TB2A G2A | (Bc)d {d}Tc2B | A2A A2d |\
d2c c2B | TB2A G2A | (Bc)d {d}Tc2B | A3- A2 :|
|: (B/c/) |\
d2d d(gb) | c2c c(fa) | B2B BcB | A2A ABc |\
d2d d(gb) | c2c c(fa) | BcB AGA | G3- G2 :|

%%sep 1 1 500
%%sep 1 1 500

